public/img/socials-dark-tt.svg

<svg width="32" height="32" viewBox="0 0 32 32" fill="none" xmlns="http://www.w3.org/2000/svg">
<path d="M16.6064 2.02363C18.1128 2 19.6106 2.014 21.1067 2C21.1973 3.78597 21.831 5.60519 23.1207 6.86788C24.4079 8.16208 26.2285 8.75449 28 8.95487V13.653C26.3399 13.5979 24.672 13.2478 23.1656 12.5233C22.5095 12.2223 21.8983 11.8347 21.3001 11.4383C21.2923 14.8474 21.3139 18.2522 21.2785 21.6474C21.1887 23.2785 20.6578 24.9017 19.722 26.2458C18.2164 28.4833 15.6032 29.942 12.9193 29.9875C11.273 30.0829 9.62844 29.6278 8.22561 28.7896C5.90078 27.4 4.26486 24.8562 4.02659 22.1261C3.99658 21.5479 3.99197 20.9686 4.01278 20.39C4.21997 18.17 5.30339 16.0462 6.98507 14.6015C8.8912 12.9188 11.5613 12.1173 14.0614 12.5916C14.0847 14.3198 14.0165 16.0462 14.0165 17.7745C12.8744 17.3999 11.5398 17.505 10.5418 18.2076C9.81167 18.6952 9.25991 19.4125 8.97148 20.2491C8.73322 20.8406 8.80142 21.4978 8.81523 22.1261C9.08889 24.0407 10.9052 25.6499 12.8442 25.4758C14.1296 25.4618 15.3615 24.7057 16.0314 23.5988C16.2481 23.2111 16.4907 22.8147 16.5036 22.3588C16.6167 20.2719 16.5718 18.1936 16.5857 16.1066C16.5951 11.4033 16.5718 6.713 16.6072 2.0245L16.6064 2.02363Z" fill="black"/>
</svg>

<svg width="32" height="32" fill="none" xmlns="http://www.w3.org/2000/svg"><path d="M16.606 2.024c1.507-.024 3.005-.01 4.5-.024.091 1.786.725 3.605 2.015 4.868C24.408 8.162 26.229 8.754 28 8.955v4.698c-1.66-.055-3.328-.405-4.834-1.13-.657-.3-1.268-.688-1.866-1.085-.008 3.41.014 6.814-.021 10.21-.09 1.63-.621 3.254-1.557 4.598-1.506 2.237-4.119 3.696-6.803 3.742-1.646.095-3.29-.36-4.693-1.198-2.325-1.39-3.961-3.934-4.2-6.664a19.78 19.78 0 01-.013-1.736c.207-2.22 1.29-4.344 2.972-5.789 1.906-1.682 4.576-2.484 7.076-2.01.024 1.729-.044 3.455-.044 5.184-1.143-.375-2.477-.27-3.475.433a4.034 4.034 0 00-1.57 2.041c-.239.592-.17 1.249-.157 1.877.274 1.915 2.09 3.524 4.03 3.35 1.285-.014 2.516-.77 3.186-1.877.217-.388.46-.784.473-1.24.113-2.087.068-4.165.082-6.252.01-4.704-.014-9.394.021-14.082v-.001z" fill="#000"/></svg>
